src/components/00-materials/images-raw/Graduation Hat.svg

<svg width="96" height="96" viewBox="0 0 96 96" fill="none" xmlns="http://www.w3.org/2000/svg">
<path d="M7 37.9999L46.39 20.7099C46.8974 20.4868 47.4457 20.3716 48 20.3716C48.5543 20.3716 49.1026 20.4868 49.61 20.7099L89 37.9999L49.61 55.2899C49.1026 55.513 48.5543 55.6282 48 55.6282C47.4457 55.6282 46.8974 55.513 46.39 55.2899L7 37.9999Z" stroke="#00008F" stroke-width="2" stroke-linecap="round" stroke-linejoin="round"/>
<path d="M22.09 45L20 59.65C19.9855 60.0976 20.0745 60.5426 20.2601 60.9502C20.4457 61.3578 20.7228 61.717 21.07 62C28.5644 68.4401 38.1186 71.9812 48 71.9812C57.8814 71.9812 67.4356 68.4401 74.93 62C75.2772 61.717 75.5543 61.3578 75.7399 60.9502C75.9255 60.5426 76.0145 60.0976 76 59.65L73.91 45" stroke="#00008F" stroke-width="2" stroke-linecap="round" stroke-linejoin="round"/>
<path d="M21 55C24.19 57.84 32.66 66 48 66C63.34 66 71.8 57.84 75 55" stroke="#00008F" stroke-width="2" stroke-linecap="round" stroke-linejoin="round"/>
<path d="M48 38L28 47V69M28 69L25 80C25.3938 80.3943 25.8614 80.7071 26.3762 80.9205C26.891 81.1339 27.4428 81.2437 28 81.2437C28.5572 81.2437 29.109 81.1339 29.6238 80.9205C30.1386 80.7071 30.6062 80.3943 31 80L28 69Z" stroke="#00008F" stroke-width="2" stroke-linecap="round" stroke-linejoin="round"/>
</svg>

<svg width="96" height="96" viewBox="0 0 96 96" fill="none" xmlns="http://www.w3.org/2000/svg"><path d="M7 38l39.39-17.29a4 4 0 013.22 0L89 38 49.61 55.29a4 4 0 01-3.22 0L7 38z" stroke="#00008F" stroke-width="2" stroke-linecap="round" stroke-linejoin="round"/><path d="M22.09 45L20 59.65A2.91 2.91 0 0021.07 62a41.32 41.32 0 0053.86 0A2.91 2.91 0 0076 59.65L73.91 45" stroke="#00008F" stroke-width="2" stroke-linecap="round" stroke-linejoin="round"/><path d="M21 55c3.19 2.84 11.66 11 27 11s23.8-8.16 27-11" stroke="#00008F" stroke-width="2" stroke-linecap="round" stroke-linejoin="round"/><path d="M48 38l-20 9v22m0 0l-3 11a4.24 4.24 0 006 0l-3-11z" stroke="#00008F" stroke-width="2" stroke-linecap="round" stroke-linejoin="round"/></svg>
